!!!COM:	Bach, Johann Sebastian
!!!OMV:	Weg, mein Herz, mit den Gedanken
!!!OTL:	Weg, mein Herz, mit den Gedanken
**kern	**fb	**kern	**kern	**kern	**kern	**kern	**kern	**kern
*part8	*part8	*part7	*part6	*part5	*part4	*part3	*part2	*part1
*staff8	*	*staff7	*staff6	*staff5	*staff4	*staff3	*staff2	*staff1
*I"Voice	*	*I"Voice	*I"Voice	*I"Voice	*I"Timpani	*I"C Trumpet	*I"C Trumpet	*I"C Trumpet
*I'V	*	*I'V	*I'V	*I'V	*I'Timp.	*I'C Tpt.	*I'C Tpt.	*I'C Tpt.
*clefF4	*	*clefGv2	*clefG2	*clefG2	*clefF4	*clefG2	*clefG2	*clefG2
*k[]	*	*k[]	*k[]	*k[]	*k[]	*k[]	*k[]	*k[]
*M3/4	*	*M3/4	*M3/4	*M3/4	*M3/4	*M3/4	*M3/4	*M3/4
=	=	=	=	=	=	=	=	=
2c	.	2e	2g	2cc	4C	4cc	2ee	2gg
.	.	.	.	.	4GG	4g	.	.
4G	.	4B	4g	4dd	4GG	4g	4dd	4gg
=3	=3	=3	=3	=3	=3	=3	=3	=3
2C	.	4c	2g	2ee	4C	4e	4cc	4gg
.	.	4B	.	.	4r	4r	4r	4r
4D	#	4A	4f#X	4dd	4r	4r	4r	4r
=4	=4	=4	=4	=4	=4	=4	=4	=4
4E	6	4e	4g	2cc	2.r	2.r	4r	4r
4F#X	6 5	4d	4a	.	.	.	4r	4r
4G	.	4d	4g	4b	.	.	4dd	4gg
=5	=5	=5	=5	=5	=5	=5	=5	=5
4C	6 5	4c	4e	2.a	2.r	2.r	4ee	4gg
2D	#	2A	2f#X	.	.	.	2dd	2ff#X
=6	=6	=6	=6	=6	=6	=6	=6	=6
2.GG;	.	2.B;	2.d;	2.g;	2.r	2.r	2.dd;	2.gg;
=7	=7	=7	=7	=7	=7	=7	=7	=7
2E	6	2G	2c	2cc	2.r	2.r	4r	4r
.	.	.	.	.	.	.	4ee	4gg
4G	.	4B	4g	4dd	.	.	4dd	4gg
=8	=8	=8	=8	=8	=8	=8	=8	=8
4c	.	2c	2g	2ee	4r	4r	2cc	4ee
4B	.	.	.	.	4C	4cc	.	4gg
4A	6	4c	4a	4ff	4C	4c	8ccL	4ff
.	.	.	.	.	.	.	8ddJ	.
=9	=9	=9	=9	=9	=9	=9	=9	=9
4G	6 4	2c	4e	4ee	4C	4c	4ee	4gg
4F	.	.	4a	2dd	4C	8cL	4ff	4aa
.	.	.	.	.	.	8cJ	.	.
4G	7 5 3	4B	4g	.	4GG	8gL	4dd	4bb
.	.	.	.	.	.	8gJ	.	.
=10	=10	=10	=10	=10	=10	=10	=10	=10
2.C;	.	2.G;	2.e;	2.cc;	2.C;	2.g;	2.ee;	2.ccc
=11:|!	=11:|!	=11:|!	=11:|!	=11:|!	=11:|!	=11:|!	=11:|!	=11:|!
2c	.	2c	2g	2ee	2.r	2.r	[2.cc	4r
.	.	.	.	.	.	.	.	4gg
4A	6	4c	4a	4ff	.	.	.	4ff
=12	=12	=12	=12	=12	=12	=12	=12	=12
!!pagebreak:original
2E	-r5	2G	2b-X	2gg	2.r	2.r	2.cc]	4r
.	.	.	.	.	.	.	.	4gg
4F	.	4c	4a	4ff	.	.	.	4aa
=13	=13	=13	=13	=13	=13	=13	=13	=13
4G	6 4	2c	4e	4ee	4r	4r	4cc	4gg
4F	6	.	4a	2dd	4C	4c	4ff	4aa
4G	.	4B	4g	.	4GG	4g	4ff	4bb
=14	=14	=14	=14	=14	=14	=14	=14	=14
2.C;	.	2.G;	2.g;	2.ee;	2.C;	2.g;	2.ee;	2.ccc;
=15	=15	=15	=15	=15	=15	=15	=15	=15
4C	.	4e	4cc	4gg	4r	4r	4r	[2.cc
8cL	.	2e	2b-X	2gg	4C	4cc	4ee	.
8B-X	.	.	.	.	.	.	.	.
8A	.	.	.	.	4C	4cc	4ee	.
8GJ	.	.	.	.	.	.	.	.
=16	=16	=16	=16	=16	=16	=16	=16	=16
2F	.	4c	4a	2aa	4C	4c	4ff	2.cc_
.	.	4d	4bn	.	4r	4r	4r	.
4E	6	4e	4cc	4gg	4r	4r	4r	.
=17	=17	=17	=17	=17	=17	=17	=17	=17
8AL	6	2c	4cc	4ff	4r	4r	4r	8ccL]
8BJ	.	.	.	.	.	.	.	8ddJ
4c	.	.	2g	2ee	4C	4g	4cc	8eeL
.	.	.	.	.	.	.	.	8ddJ
4C	.	4c	.	.	4C	4g	4cc	8eeL
.	.	.	.	.	.	.	.	8ffJ
=18	=18	=18	=18	=18	=18	=18	=18	=18
2.G;	.	2.B;	2.g;	2.dd;	2.GG;	2.g;	2.dd;	2.gg;
=19	=19	=19	=19	=19	=19	=19	=19	=19
2c	.	2c	2g	2ee	4r	4r	2cc	8eeL
.	.	.	.	.	.	.	.	8ffJ
.	.	.	.	.	4C	4g	.	8eeL
.	.	.	.	.	.	.	.	8ddJ
4E	6	4c	4g	4gg	4C	4cc	4g	[4cc
=20	=20	=20	=20	=20	=20	=20	=20	=20
2F	.	2c	2a	2ff	4C	4ff	2c	4cc]
.	.	.	.	.	4r	4r	.	4dd
4G	6	4B	4g	4ee	4r	4r	4g	4ee
=21	=21	=21	=21	=21	=21	=21	=21	=21
4A	6	4c	4f	4cc	2.r	2.r	4cc	4ff
4B	6 5	2B	4d	2dd	.	.	4g	4gg
4G	7	.	4g	.	.	.	4dd	4ff
=22	=22	=22	=22	=22	=22	=22	=22	=22
!!pagebreak:original
2c	.	2c	2.g	2.ee	4r	4r	8ccL	8eeL
.	.	.	.	.	.	.	8ddJ	8ffJ
.	.	.	.	.	4C	4cc	8eeL	8ggL
.	.	.	.	.	.	.	8ffJ	8aaJ
4C	.	4B-X	.	.	4C	4cc	8ddL	8ffL
.	.	.	.	.	.	.	8eeJ	8ggJ
=23	=23	=23	=23	=23	=23	=23	=23	=23
2.F;	.	2.A;	2.f;	2.cc;	2.C;	2.cc;	2.ff;	2.aa;
=24	=24	=24	=24	=24	=24	=24	=24	=24
2C	.	2c	2g	2ee	4r	4r	8eeL	8ggL
.	.	.	.	.	.	.	8ffJ	8aaJ
.	.	.	.	.	4C	4cc	8eeL	8ggL
.	.	.	.	.	.	.	8ddJ	8ffJ
4c	.	4e	4g	4gg	4C	4g	4cc	4ee
=25	=25	=25	=25	=25	=25	=25	=25	=25
4c	9 5 4	2d	2g	2ff	4GG	2g	2dd	4ff
4B	.	.	.	.	4GG	.	.	2gg
4c	8 3	4c	4g	4ee	4C	4g	4ee	.
=26	=26	=26	=26	=26	=26	=26	=26	=26
4F	6	4A	4f	2dd	4r	2dd	2ff	4aa
4G	.	[2G	4d	.	4GG	.	.	4bb
4C	.	.	4g	4ee	4C	4cc	8eeL	[4ccc
.	.	.	.	.	.	.	8ffJ	.
=27	=27	=27	=27	=27	=27	=27	=27	=27
2.GG	.	8GL]	2.g	2.dd	2.GG	2.dd	2.gg	4ccc]
.	.	8dJ	.	.	.	.	.	.
.	.	8fL	.	.	.	.	.	2bb
.	.	8eJ	.	.	.	.	.	.
.	.	4f	.	.	.	.	.	.
=28	=28	=28	=28	=28	=28	=28	=28	=28
2.C;	.	2.e;	2.g;	2.cc;	2.C;	2.ee;	2.gg;	2.ccc;
=||	=||	=||	=||	=||	=||	=||	=||	=||
*-	*-	*-	*-	*-	*-	*-	*-	*-
!!!system-decoration: s1,s2,s3,s4,s5,s6,s7,s8
